X: 7387
T:Louis' Waltz
R:Waltz
O:USA
M:3/4
K:D
B A>G|\
F2D>F A>d|f4 e>f|g>b b>g f>g|B3 d c>B|\
A>G E>F G>A|c2 B2 A2|F3E F>G|F4 A>G|
F2 D>F A>d|f4 e>f|g>b b>g f>g|B3d c>B|\
A>G E>F G>A|c2 B>c A>c|d3e d>c|d3||
A B>A|\
G3A B>A|c2 B2 A2|F3D F>A|d2 c2 d2|\
e4 e>f|e2 A2 G2|F3 F F2|F2 E2 F2|
G3A B>A|c2 B2 A2|F3D F>A|d2 c2 d2|\
E3E E>F|G2 F2 E2|D3E D2|D4|]
